src/assets/duotone/MessageSquare.svg

<svg width="24" height="24" viewBox="0 0 24 24"  xmlns="http://www.w3.org/2000/svg">
<path d="M18.28 9.75982V12.8998C18.28 13.0998 18.27 13.2998 18.25 13.4898C18.07 15.6098 16.82 16.6698 14.52 16.6698H14.21C14.01 16.6698 13.82 16.7598 13.71 16.9198L12.77 18.1798C12.35 18.7398 11.68 18.7398 11.26 18.1798L10.32 16.9198C10.22 16.7898 9.99001 16.6698 9.82001 16.6698H9.51001C7.00001 16.6698 5.75 16.0498 5.75 12.9098V9.7698C5.75 7.4698 6.80999 6.21982 8.92999 6.03982C9.11999 6.01982 9.31999 6.00982 9.51999 6.00982H14.55C17.02 5.99982 18.28 7.25982 18.28 9.75982Z" />
<path opacity="0.4" d="M16.1898 2H7.81976C4.17976 2 2.00977 4.17 2.00977 7.81V16.18C2.00977 19.82 4.17976 21.99 7.81976 21.99H16.1898C19.8298 21.99 21.9998 19.82 21.9998 16.18V7.81C21.9998 4.17 19.8298 2 16.1898 2Z" />
</svg>

<?xml version="1.0" encoding="UTF-8"?>
<svg width="24" height="24" viewBox="0 0 24 24" xmlns="http://www.w3.org/2000/svg">
 <path d="m18.28 9.7598v3.14c0 0.2-0.01 0.4-0.03 0.59-0.18 2.12-1.43 3.18-3.73 3.18h-0.31c-0.2 0-0.39 0.09-0.5 0.25l-0.94 1.26c-0.42 0.56-1.09 0.56-1.51 0l-0.94-1.26c-0.1-0.13-0.32999-0.25-0.49999-0.25h-0.31c-2.51 0-3.76-0.62-3.76-3.76v-3.14c0-2.3 1.06-3.55 3.18-3.73 0.19-0.02 0.39-0.03 0.59-0.03h5.03c2.47-0.01 3.73 1.25 3.73 3.75z"/>
 <path d="m16.19 2h-8.37c-3.64 0-5.81 2.17-5.81 5.81v8.37c0 3.64 2.17 5.81 5.81 5.81h8.37c3.64 0 5.81-2.17 5.81-5.81v-8.37c0-3.64-2.17-5.81-5.81-5.81z" opacity=".4"/>
</svg>
